!!!OTL: 1486. Hirtenlied aus dem Riesengebirge.
!!!ODT: 1804 (Mel)
!!!ARE: Europa, Mitteleuropa, Deutschland; Boehmen, Riesengebirge
!!!SCT: E1486
!!!TXL: @@GSW
!!!YEM: Copyright 1995, estate of Helmut Schaffrath.
**kern	**text
*ICvox	*
*M3/4	*
*k[b-e-]	*
*B-:	*
=1	=1
!LO:TX:a:t=Mäßig bewegt.	!
!LO:TX:a:t=Mel. 1804.	!
{8f	Ob
8a	ich
4b-	a
8a	nur
8g	a
=2	=2
8a	Hir-
8b-	-te
2cc}	bin,
=3	=3
{8cc	ho
8dd	ich
8ee-L	doch
8ccJ	.
8ddL	en
8b-J	.
=4	=4
8cc	fro-
8cc	-ha
2b-}	Sinn;
=5	=5
{8f	Ob
8a	ich
4b-	a
8a	nur
8g	a
=6	=6
8a	Hir-
8b-	-te
2cc}	bin,
=7	=7
{8cc	ho
8dd	ich
8ee-L	doch
8ccJ	.
8ddL	en
8b-J	.
=8	=8
8cc	fro-
8cc	-ha
2b-}	Sinn;
=9	=9
{8.dd	führ
16ee-	a
4ff	wuhl
4dd	a
=10	=10
8cc	ſol-
8dd	-ches
4ee-	La-
4cc}	-be,
=11	=11
{8.dd	daß
16ee-	mich
4ff	Loſt
4dd	und
=12	=12
8cc	Fred
8dd	um-
4ee-	-ga-
4cc}	-be,
=13	=13
{8f	on
8a	mir
4b-	den-
8aL	-ka
8gJ	.
=14	=14
8a	oft
8b-	da-
2cc}	-bei
=15	=15
{8cc	daß
8dd	ich
8ee-L	a
8ccJ	.
8ddL	wackrer
8b-J	.
=16	=16
8cc	Hir-
8cc	-te
2b-}	ſei.
==	==
!!!AGN: Staende - Lied, Hirten -,  Schaefer - Lied
!!!ONB: ESAC (Essen Associative Code) Database: ERK3
!!!AMT: simple triple
!!!AIN: vox
!!!EED: Helmut Schaffrath
!!!EEV: 1.0
!!!GTL: Staendelieder (Berufslieder). 3. Hirtenlieder. Schaeferlieder.
!!!URL-scan: https://rosdok.uni-rostock.de/mcrviewer/recordIdentifier/rosdok_ppn745177999/iview2/phys_0344.iview2?x=-128.77276441889285&y=1944.1401443842333&scale=0.5870222003877487&rotation=0&layout=singlePageLayout
!!!ENC: Anna Maria Matuszewska
!!!EEV: 2025/03/01
*-	*-
